X: 8349
T: Counsellor Dillon
R: jig
M: 6/8
K: Dmajor
|:BdB ABA|FDD ~E3|EFA B2 c|d/e/fd c/d/ec|dcB AFD|DFD {G}A2 F:|
|:Bee efe|fga {f}gfe|f/g/af {e}d2 B|AFD AFD|dcB AFD|DFD {G}A2 F:|

